X: 6461
T: Cat In The Corner, The
R: slide
M: 12/8
K: Gmajor
|:d2 c|BcB AGA BcB AGA|B2 e dcB A3 AGA|
B3 AGA BcB AGA|1 Bce dBA G3:|2 Bce dBA GB/c/d g2||
|:d|efe edB e2 f g3|BAB edB A3 ABd|
e3 edB e2 f g2 B|BAB dBA G3 G2:|

